src/assets/img/icons/duotone-icons/Cooking/Rolling-pin.svg

<?xml version="1.0" encoding="UTF-8"?>
<svg width="24px" height="24px" viewBox="0 0 24 24" version="1.1" xmlns="http://www.w3.org/2000/svg" xmlns:xlink="http://www.w3.org/1999/xlink">
    <!-- Generator: Sketch 52.2 (67145) - http://www.bohemiancoding.com/sketch -->
    <title>Stockholm-icons / Cooking / Rolling-pin</title>
    <desc>Created with Sketch.</desc>
    <g id="Stockholm-icons-/-Cooking-/-Rolling-pin" stroke="none" stroke-width="1" fill="none" fill-rule="evenodd">
        <rect id="bound" x="0" y="0" width="24" height="24"></rect>
        <path d="M5.28248558,14.4748737 L14.4748737,5.28248558 C15.0606602,4.69669914 16.0104076,4.69669914 16.5961941,5.28248558 L18.7175144,7.40380592 C19.3033009,7.98959236 19.3033009,8.93933983 18.7175144,9.52512627 L9.52512627,18.7175144 C8.93933983,19.3033009 7.98959236,19.3033009 7.40380592,18.7175144 L5.28248558,16.5961941 C4.69669914,16.0104076 4.69669914,15.0606602 5.28248558,14.4748737 Z" id="Rectangle-85" fill="#335EEA"></path>
        <path d="M3.51471863,18.363961 L4.22182541,17.6568542 C4.41708755,17.4615921 4.73367004,17.4615921 4.92893219,17.6568542 L6.34314575,19.0710678 C6.5384079,19.26633 6.5384079,19.5829124 6.34314575,19.7781746 L5.63603897,20.4852814 C5.05025253,21.0710678 4.10050506,21.0710678 3.51471863,20.4852814 C2.92893219,19.8994949 2.92893219,18.9497475 3.51471863,18.363961 Z M18.363961,3.51471863 C18.9497475,2.92893219 19.8994949,2.92893219 20.4852814,3.51471863 C21.0710678,4.10050506 21.0710678,5.05025253 20.4852814,5.63603897 L19.7781746,6.34314575 C19.5829124,6.5384079 19.26633,6.5384079 19.0710678,6.34314575 L17.6568542,4.92893219 C17.4615921,4.73367004 17.4615921,4.41708755 17.6568542,4.22182541 L18.363961,3.51471863 Z" id="Combined-Shape" fill="#335EEA" opacity="0.3"></path>
    </g>
</svg>

<svg width="24" height="24" viewBox="0 0 24 24" xmlns="http://www.w3.org/2000/svg"><g fill="none" fill-rule="evenodd"><path d="M0 0h24v24H0z"/><path d="M5.282 14.475l9.193-9.193a1.5 1.5 0 012.121 0l2.122 2.122a1.5 1.5 0 010 2.121l-9.193 9.193a1.5 1.5 0 01-2.121 0l-2.122-2.122a1.5 1.5 0 010-2.121z" fill="#335EEA"/><path d="M3.515 18.364l.707-.707a.5.5 0 01.707 0l1.414 1.414a.5.5 0 010 .707l-.707.707a1.5 1.5 0 01-2.121-2.121zm14.849-14.85a1.5 1.5 0 012.121 2.122l-.707.707a.5.5 0 01-.707 0L17.657 4.93a.5.5 0 010-.707l.707-.707z" fill="#335EEA" opacity=".3"/></g></svg>
